X: 1548
T: Olsa da Hoş
C: Sadettin Kaynak
O: Turkey
F: http://compmusic.upf.edu/node/140
N: mahur--sarki--duyek--olsa_da_hos--sadettin_kaynak
N: makam= mahur
N: form= sarki
N: usul= duyek = 8/4
M: 8/4
L: 1/16
K: C ^9/8f   
Q: 1/4=120
%%MIDI tuningsystem comma53
z2 g3/2f/ e2 f2 g3/2f/ ga b3/2a/ g2  | \
w:   | 
z2 c'2 b2 a2 g2 ef gg fe  | 
w:   | 
d2 g2 =f2 e2 df de cd Bc  | A2 c2 B2 A2 G3/2F/ EF G4  | 
w:   |   | 
z2 g3/2f/ e2 f2 g3/2f/ ga b3/2a/ g2  | \
w:   | 
z2 c'2 b2 a2 g2 ef gg fe  | 
w:   | 
d2 g2 =f2 e2 df de cd Bc  | A2 c2 B2 A2 G3/2F/ EF G4  | 
w:   |   | 
z2 g3/2f/ e2 f2 g8  | z2 c'2 b2 a2 g3f e2 f2  | \
w:   |   | 
g2 b2 a2 g2 fe/f/ ge d4  | 
w:   | 
(3d^cd (3ede (3fef g2 (3BA=c (3cBA G4  | \
w:   | 
(3d^cd (3ede (3fef g2 (3bac' (3c'ba g4  | 
w:   | 
z2 d2 e2 f2 g8  | z2 c4 e2 =f3e d2 c2  | \
w:   |   | 
de f2 ed c2 B2 cd e2 dc  | 
w:   | 
B3/2A/ G2 z2 cB AG AB A8 z2 Ac B2 A2 G2 GF  | \
w:   | 
E2 F2 G4 z2 AB cc BA  | 
w:   | 
G4 z2 g3/2f/ e2 f2 g3/2f/ ga  | b3/2a/ g2 z2 c'2 b2 a2 g2 ef  | \
w:   |   | 
gg fe d2 g2 =f2 e2 df de  | 
w:   | 
cd Bc A2 c2 B2 A2 G3/2F/ EF  | G4 z2 g3/2f/ e2 f2 g3/2f/ ga  | 
w:   |   | 
b3/2a/ g2 z2 c'2 b2 a2 g2 ef  | gg fe d2 g2 =f2 e2 df de  | 
w:   |   | 
cd Bc A2 c2 B2 A2 G3/2F/ EF  | G4 z2 dz dz dz e^c3  | 
w:   |   | 
d_7/8B2A BA A2 z2 GA B3/2A/ GF  | \
w:   | 
G4 z2 dz dz dz e^c3  | 
w:   | 
d_7/8B2A BA A2 z2 dd e3/2d/ ef  | \
w:   | 
g4 z2 d2 e2 f2 g8 z2 c4 e2 =f3e  | 
w:   | 
d2 c2 de f2 ed c2 B2 cd  | e2 dc B3/2A/ G2 z2 cB AG AB  | 
w:   |   | 
A8 z2 Ac B2 A2  | G2 GF E2 F2 G4 z2 AB  | \
w:   |   | 
cc BA G4 |
w:   | 


